X:1
T: Jessie Ralston's Reel
C:H. Dunlop
R:Reel
Q: 232
K:D
M:4/4
L:1/8
|:A|d2 fd gf ed|ce Ae ce Ae|d2 fd gf ed|ce Ag fd dA|
d2 fd gf ed|ce Ae ce Ae|de fg ad fd|ge ce fd d2|
DE FG AD FA|Bd AF GE EF|DE FG AD FA|dA BG FD DF|
DE FG AD FA|Bd AF GE EF|FA DA GB Ed|ce Ag fd d:|
